icons/circle/48/phpstorm.svg

<svg xmlns="http://www.w3.org/2000/svg" viewBox="0 0 48 48">
  <defs>
    <linearGradient y2="46" y1="2" x2="24" x1="24" gradientUnits="userSpaceOnUse" id="linearGradient4172">
      <stop offset="0" style="stop-color:#e370a3;stop-opacity:1" />
      <stop offset="1" style="stop-color:#ae6ee2;stop-opacity:1" />
    </linearGradient>
  </defs>
  <g>
    <path d="m 36.31 5 c 5.859 4.062 9.688 10.831 9.688 18.5 c 0 12.426 -10.07 22.5 -22.5 22.5 c -7.669 0 -14.438 -3.828 -18.5 -9.688 c 1.037 1.822 2.306 3.499 3.781 4.969 c 4.085 3.712 9.514 5.969 15.469 5.969 c 12.703 0 23 -10.298 23 -23 c 0 -5.954 -2.256 -11.384 -5.969 -15.469 c -1.469 -1.475 -3.147 -2.744 -4.969 -3.781 z m 4.969 3.781 c 3.854 4.113 6.219 9.637 6.219 15.719 c 0 12.703 -10.297 23 -23 23 c -6.081 0 -11.606 -2.364 -15.719 -6.219 c 4.16 4.144 9.883 6.719 16.219 6.719 c 12.703 0 23 -10.298 23 -23 c 0 -6.335 -2.575 -12.06 -6.719 -16.219 z" style="opacity:0.05" />
    <path d="m 41.28 8.781 c 3.712 4.085 5.969 9.514 5.969 15.469 c 0 12.703 -10.297 23 -23 23 c -5.954 0 -11.384 -2.256 -15.469 -5.969 c 4.113 3.854 9.637 6.219 15.719 6.219 c 12.703 0 23 -10.298 23 -23 c 0 -6.081 -2.364 -11.606 -6.219 -15.719 z" style="opacity:0.1" />
    <path d="m 31.25 2.375 c 8.615 3.154 14.75 11.417 14.75 21.13 c 0 12.426 -10.07 22.5 -22.5 22.5 c -9.708 0 -17.971 -6.135 -21.12 -14.75 a 23 23 0 0 0 44.875 -7 a 23 23 0 0 0 -16 -21.875 z" style="opacity:0.2" />
  </g>
  <path d="M 47,24 A 23,23 0 0 1 24,47 23,23 0 0 1 1,24 23,23 0 0 1 24,0.9999996 23,23 0 0 1 47,24 Z" style="opacity:1;fill:url(#linearGradient4172);fill-opacity:1" />
  <g>
    <path d="m 40.03 7.531 c 3.712 4.084 5.969 9.514 5.969 15.469 0 12.703 -10.297 23 -23 23 c -5.954 0 -11.384 -2.256 -15.469 -5.969 4.178 4.291 10.01 6.969 16.469 6.969 c 12.703 0 23 -10.298 23 -23 0 -6.462 -2.677 -12.291 -6.969 -16.469 z" style="opacity:0.1" />
  </g>
  <g>
    <path d="m 12,11.999999 26,0 L 38,38 12,38 Z" style="fill:#000000;fill-opacity:0.1" />
    <path d="m 11,11 26,0 0,26 -26,0 z" style="fill:#303030;fill-opacity:1" />
    <path style="opacity:1;fill:#f9f9f9;fill-opacity:1;" d="m 13,32 10,0 0,2 -10,0 z" />
    <path d="M 15 13.998047 L 15 24.998047 L 17 24.998047 L 17 20.998047 L 19 20.998047 C 21.407407 20.998047 23 20.016421 23 17.548828 L 23 17.498047 C 23 15.271195 21.914135 13.998047 19.326172 13.998047 L 15 13.998047 z M 29.025391 14 C 26.858724 14 24.978516 15.088108 24.978516 17.074219 L 24.978516 17.134766 C 24.978516 18.52841 26.376303 19.766928 28.542969 20.308594 C 30.348525 20.790076 31.025391 21.226273 31.025391 21.828125 L 31.025391 21.888672 C 31.025391 22.550709 29.988354 23 29.025391 23 C 27.821687 23 26.988354 22.549986 26.025391 21.767578 L 24.71875 23.183594 C 25.982639 24.327112 27.400391 24.93981 29.025391 25 C 31.312428 25 32.982422 23.570037 32.982422 21.708984 L 32.982422 21.648438 C 32.982422 20.000348 31.692058 19.31279 29.525391 18.710938 C 27.719836 18.229456 27.025391 17.892144 27.025391 17.169922 L 27.025391 16.982422 C 27.025391 16.440756 28.122613 16 29.025391 16 C 29.928169 16 30.605396 16.064525 31.568359 16.726562 L 32.681641 15.208984 C 31.544376 14.521934 30.590206 14 29.025391 14 z M 17 15.998047 L 19 15.998047 C 20.203704 15.998047 21 16.414714 21 17.498047 L 21 17.548828 C 21 18.451606 20.203704 18.998047 19 18.998047 L 17 18.998047 L 17 15.998047 z " style="fill:#f9f9f9;fill-opacity:1" />
  </g>
</svg>

<svg viewBox="0 0 48 48" xmlns="http://www.w3.org/2000/svg">
 <defs>
  <linearGradient id="linearGradient4172" x1="24" x2="24" y1="2" y2="46" gradientUnits="userSpaceOnUse">
   <stop style="stop-color:#e370a3" offset="0"/>
   <stop style="stop-color:#ae6ee2" offset="1"/>
  </linearGradient>
 </defs>
 <path d="m36.31 5c5.859 4.062 9.688 10.831 9.688 18.5 0 12.426-10.07 22.5-22.5 22.5-7.669 0-14.438-3.828-18.5-9.688 1.037 1.822 2.306 3.499 3.781 4.969 4.085 3.712 9.514 5.969 15.469 5.969 12.703 0 23-10.298 23-23 0-5.954-2.256-11.384-5.969-15.469-1.469-1.475-3.147-2.744-4.969-3.781zm4.969 3.781c3.854 4.113 6.219 9.637 6.219 15.719 0 12.703-10.297 23-23 23-6.081 0-11.606-2.364-15.719-6.219 4.16 4.144 9.883 6.719 16.219 6.719 12.703 0 23-10.298 23-23 0-6.335-2.575-12.06-6.719-16.219z" style="opacity:.05"/>
 <path d="m41.28 8.781c3.712 4.085 5.969 9.514 5.969 15.469 0 12.703-10.297 23-23 23-5.954 0-11.384-2.256-15.469-5.969 4.113 3.854 9.637 6.219 15.719 6.219 12.703 0 23-10.298 23-23 0-6.081-2.364-11.606-6.219-15.719z" style="opacity:.1"/>
 <path d="m31.25 2.375c8.615 3.154 14.75 11.417 14.75 21.13 0 12.426-10.07 22.5-22.5 22.5-9.708 0-17.971-6.135-21.12-14.75a23 23 0 0 0 44.875-7 23 23 0 0 0-16-21.875z" style="opacity:.2"/>
 <path d="m47 24a23 23 0 0 1-23 23 23 23 0 0 1-23-23 23 23 0 0 1 23-23 23 23 0 0 1 23 23z" style="fill:url(#linearGradient4172)"/>
 <path d="m40.03 7.531c3.712 4.084 5.969 9.514 5.969 15.469 0 12.703-10.297 23-23 23-5.954 0-11.384-2.256-15.469-5.969 4.178 4.291 10.01 6.969 16.469 6.969 12.703 0 23-10.298 23-23 0-6.462-2.677-12.291-6.969-16.469z" style="opacity:.1"/>
 <path d="m12 12h26v26h-26z" style="fill-opacity:.1"/>
 <path d="m11 11h26v26h-26z" style="fill:#303030"/>
 <path d="m13 32h10v2h-10z" style="fill:#f9f9f9"/>
 <path d="m15 13.998v11h2v-4h2c2.4074 0 4-0.98163 4-3.4492v-0.050781c0-2.2269-1.0859-3.5-3.6738-3.5h-4.3262zm14.025 0.001953c-2.1667 0-4.0469 1.0881-4.0469 3.0742v0.060547c0 1.3936 1.3978 2.6322 3.5645 3.1738 1.8056 0.48148 2.4824 0.91768 2.4824 1.5195v0.060547c0 0.66204-1.037 1.1113-2 1.1113-1.2037 0-2.037-0.45001-3-1.2324l-1.3066 1.416c1.2639 1.1435 2.6816 1.7562 4.3066 1.8164 2.287 0 3.957-1.43 3.957-3.291v-0.060546c0-1.6481-1.2904-2.3356-3.457-2.9375-1.8056-0.48148-2.5-0.81879-2.5-1.541v-0.1875c0-0.54167 1.0972-0.98242 2-0.98242s1.58 0.064525 2.543 0.72656l1.1133-1.5176c-1.1373-0.68705-2.0914-1.209-3.6562-1.209zm-12.025 1.998h2c1.2037 0 2 0.41667 2 1.5v0.050781c0 0.90278-0.7963 1.4492-2 1.4492h-2v-3z" style="fill:#f9f9f9"/>
</svg>
